dist/svgs/core-ui-icons/free/cil-braille.svg

<svg xmlns="http://www.w3.org/2000/svg" viewBox="0 0 512 512"><path d="M112 192a48 48 0 10-48 48 48.055 48.055 0 0048-48zm-64 0a16 16 0 1116 16 16.019 16.019 0 01-16-16zm272 48a48 48 0 10-48-48 48.055 48.055 0 0048 48zm0-64a16 16 0 11-16 16 16.019 16.019 0 0116-16zm-136-64a48 48 0 10-48-48 48.055 48.055 0 0048 48zm0-64a16 16 0 11-16 16 16.019 16.019 0 0116-16zm264 96a48 48 0 1048 48 48.055 48.055 0 00-48-48zm0 64a16 16 0 1116-16 16.019 16.019 0 01-16 16zm0-96a48 48 0 10-48-48 48.055 48.055 0 0048 48zm0-64a16 16 0 11-16 16 16.019 16.019 0 0116-16zm-128 64a48 48 0 10-48-48 48.055 48.055 0 0048 48zm0-64a16 16 0 11-16 16 16.019 16.019 0 0116-16zm56 272a47.691 47.691 0 00-23.549 6.184 47.958 47.958 0 00-64-16A47.991 47.991 0 00232 290.742V248a48 48 0 00-96 0v96.038A79.6 79.6 0 0088 328a24.028 24.028 0 00-24 24v144h32V360.667A48.078 48.078 0 01136 408v16h32V248a16 16 0 0132 0v176h32v-88a16 16 0 0132 0v88h32v-72a16 16 0 0132 0v72h32v-56a16 16 0 0132 0v128h32V368a48.055 48.055 0 00-48-48z"/></svg>

<svg xmlns="http://www.w3.org/2000/svg" viewBox="0 0 512 512">
  <path fill="var(--ci-primary-color, currentColor)" d="M112,192a48,48,0,1,0-48,48A48.055,48.055,0,0,0,112,192Zm-64,0a16,16,0,1,1,16,16A16.019,16.019,0,0,1,48,192Z" class="ci-primary"/>
  <path fill="var(--ci-primary-color, currentColor)" d="M320,240a48,48,0,1,0-48-48A48.055,48.055,0,0,0,320,240Zm0-64a16,16,0,1,1-16,16A16.019,16.019,0,0,1,320,176Z" class="ci-primary"/>
  <path fill="var(--ci-primary-color, currentColor)" d="M184,112a48,48,0,1,0-48-48A48.055,48.055,0,0,0,184,112Zm0-64a16,16,0,1,1-16,16A16.019,16.019,0,0,1,184,48Z" class="ci-primary"/>
  <path fill="var(--ci-primary-color, currentColor)" d="M448,144a48,48,0,1,0,48,48A48.055,48.055,0,0,0,448,144Zm0,64a16,16,0,1,1,16-16A16.019,16.019,0,0,1,448,208Z" class="ci-primary"/>
  <path fill="var(--ci-primary-color, currentColor)" d="M448,112a48,48,0,1,0-48-48A48.055,48.055,0,0,0,448,112Zm0-64a16,16,0,1,1-16,16A16.019,16.019,0,0,1,448,48Z" class="ci-primary"/>
  <path fill="var(--ci-primary-color, currentColor)" d="M320,112a48,48,0,1,0-48-48A48.055,48.055,0,0,0,320,112Zm0-64a16,16,0,1,1-16,16A16.019,16.019,0,0,1,320,48Z" class="ci-primary"/>
  <path fill="var(--ci-primary-color, currentColor)" d="M376,320a47.691,47.691,0,0,0-23.549,6.184,47.958,47.958,0,0,0-64-16A47.991,47.991,0,0,0,232,290.742V248a48,48,0,0,0-96,0v96.038A79.6,79.6,0,0,0,88,328a24.028,24.028,0,0,0-24,24V496H96V360.667A48.078,48.078,0,0,1,136,408v16h32V248a16,16,0,0,1,32,0V424h32V336a16,16,0,0,1,32,0v88h32V352a16,16,0,0,1,32,0v72h32V368a16,16,0,0,1,32,0V496h32V368A48.055,48.055,0,0,0,376,320Z" class="ci-primary"/>
</svg>
